lib/brands/icons/sass.svg

<svg xmlns="http://www.w3.org/2000/svg" fill="none" aria-hidden="true" viewBox="0 0 48 48"><g id="sass-Icon"><path id="Vector" fill="#8CC84B" d="M17.9301 28.0289C17.3579 28.3867 16.4959 28.9664 15.829 29.5969C14.7341 30.6309 14.505 32.0651 15.0826 32.4002C15.6168 32.7099 16.8642 32.3414 17.7569 31.3677C18.6937 30.3454 19.0801 29.0495 18.6811 27.5783C18.6342 27.6063 18.5882 27.6343 18.543 27.6604L18.544 27.6624L18.4835 27.6967C18.2505 27.8357 18.0602 27.9504 17.9301 28.0289ZM34.0088 27.5648C33.6847 28.2691 33.6684 28.4958 33.7669 28.5663C34.2372 28.3973 35.0152 27.9902 35.0213 26.8991C35.0223 26.7357 34.9863 26.5604 34.9284 26.3771C34.4257 26.8223 34.1359 27.2884 34.0088 27.5648ZM39.055 25.4352C37.7986 25.2888 36.8183 25.465 36.0575 25.782C36.1984 26.1486 36.3067 26.5306 36.322 26.9154C36.3573 27.7598 35.776 28.3848 35.1702 28.8309C34.8165 29.0911 34.4401 29.2644 34.1241 29.3692C33.8715 29.4757 33.5357 29.5858 33.2973 29.5372C32.7719 29.4304 32.4922 28.9637 32.8497 27.9342C33.0428 27.377 33.5997 26.5289 34.4986 25.7983C34.2938 25.3765 34.0654 24.9467 33.949 24.5519C33.7196 23.7735 33.6504 23.3029 33.6504 23.3029C33.6504 23.3029 32.9094 24.8392 31.9534 26.2363C31.8983 26.3175 31.8433 26.3971 31.7882 26.4764C31.9759 26.9128 32.1238 27.3742 32.1439 27.8394C32.1791 28.6838 31.8135 29.3223 31.2069 29.7675C30.8785 30.0096 30.5282 30.1768 30.2276 30.2833C30.0354 30.3672 29.6444 30.5053 29.0885 30.5424C28.7845 30.5632 28.492 30.5444 28.3287 30.4206C28.1039 30.2508 28.0768 30.0412 28.1932 29.7549C28.2917 29.5119 29.0281 28.6712 29.6455 27.9352C29.8161 27.7319 29.9785 27.5242 30.1238 27.3319L30.1203 27.3236C30.1203 27.3237 30.2321 27.1793 30.4136 26.9273C30.1879 26.4414 29.9019 25.9355 29.7674 25.4768C29.538 24.6984 29.4686 24.2278 29.4686 24.2278C29.4686 24.2278 28.7175 26.1533 27.9351 27.6904C27.3296 28.8809 26.9251 29.6023 26.7429 29.9184L26.741 29.9311C26.741 29.9311 26.7138 29.9773 26.6669 30.0495L26.6319 30.1081L26.6309 30.1026C26.4277 30.4026 25.972 30.9904 25.5189 30.9904C24.2752 30.9904 24.7318 28.4644 24.7318 28.4644C24.7318 28.4644 24.3682 29.4 23.9583 30.2029C23.6245 30.8577 23.3203 31.4124 22.6551 31.4124C22.4638 31.4124 22.1605 31.4068 21.9086 31.1674C21.3373 30.6246 20.9005 29.2464 20.9861 28.1789C21.0592 27.2713 21.1991 26.6427 21.3904 26.1181C21.0492 26.3041 20.6549 26.5246 20.2532 26.7603L19.6358 27.1242L19.6557 27.1603C20.1665 28.1484 20.3028 30.3132 19.189 31.9749C18.0753 33.6375 16.0021 34.6491 13.9821 34.0874C13.3304 33.9058 12.3457 32.5574 13.195 30.678C13.9441 29.0207 16.938 27.4538 17.727 27.0628L17.9435 26.9435C16.3705 25.5671 12.4423 23.7103 11.8918 20.8582C11.7365 20.0554 12.1129 18.1353 14.4704 15.9281C16.4533 14.0722 19.2116 12.6506 21.7597 11.7448C26.0405 10.223 30.5635 11.1207 31.2593 13.85C31.9434 16.5341 29.6149 19.7448 26.6327 20.899C23.9701 21.9294 21.7687 21.766 20.8643 21.4689C19.8362 21.1312 19.2333 20.4528 19.0863 20.0699C19.0284 19.92 18.929 19.6681 19.0863 19.5814C19.1827 19.5281 19.2215 19.5408 19.4796 19.8261C19.7252 20.0971 20.7126 20.8242 22.5882 20.6136C27.5101 20.0619 30.4749 16.2352 29.538 14.176C28.8819 12.7347 25.0884 12.0844 20.3488 14.4479C14.5633 17.3324 14.2493 19.7105 14.1997 20.6136C14.0642 23.0981 17.2638 24.4049 18.9951 26.2526L19.0618 26.3258C19.3858 26.147 19.728 25.9583 20.0636 25.7741C20.9365 25.2945 21.7597 24.8446 22.1432 24.635C22.7526 23.7494 23.9889 22.772 24.8817 22.772C26.3086 22.772 25.8185 24.8231 25.8185 24.8231C25.8185 24.8231 25.8474 24.7292 25.8862 24.7283C25.9268 24.7272 26.0839 24.4581 26.5245 24.6188C26.9775 24.785 26.8745 25.103 26.8774 25.1355C26.8828 25.1986 26.3421 27.022 26.1174 28.1916C26.0099 28.7497 26.0721 29.1563 26.1039 29.1563C26.1481 29.1563 26.2384 29.0144 26.3223 28.8618L26.3204 28.8573C26.3204 28.8573 26.3836 28.7417 26.4893 28.534L26.5101 28.4906L26.5109 28.4926C26.6356 28.2487 26.8105 27.8901 27.0127 27.4458C27.4089 26.5725 28.9207 23.2011 29.0489 22.8281C29.177 22.4551 29.2438 22.0695 29.307 21.9041C29.3693 21.7389 29.9037 21.6142 30.5282 21.6188C31.1527 21.6233 31.2161 21.8897 31.2204 21.9449C31.225 21.9999 30.9235 22.7396 30.854 23.2625C30.7855 23.7854 30.8514 24.0463 30.9083 24.4853C30.9453 24.7724 31.1248 25.1365 31.3371 25.5492C31.9833 24.4924 33.1204 22.4713 33.2297 21.905C33.3045 21.5176 33.4246 21.1464 33.4878 20.981C33.5509 20.8158 34.0845 20.6913 34.7089 20.6957C35.3335 20.7002 35.3966 20.9666 35.4012 21.0218C35.4057 21.0769 35.1033 21.8165 35.0348 22.3395C34.9661 22.8614 35.0322 23.1234 35.0889 23.5623C35.1377 23.938 35.4283 24.4428 35.7163 25.0171C36.5023 24.6296 37.4275 24.3696 38.5107 24.3642C38.9592 24.3616 39.4801 24.4067 39.7491 24.4906V15.8503C39.7491 15.2408 39.4366 14.6791 38.9088 14.3748L24.8141 6.22831C24.2871 5.9239 23.6417 5.9239 23.1146 6.22831L9.05879 14.3708C8.53165 14.6752 8.25 15.2379 8.25 15.8465V32.1465C8.25 32.755 8.53338 33.3177 9.05965 33.622L23.1381 41.7709C23.6651 42.0763 24.3042 42.0763 24.8312 41.7709L38.916 33.622C39.443 33.3168 39.75 32.7549 39.75 32.1465V25.559C39.5713 25.5063 39.3095 25.4649 39.055 25.4352ZM23.8916 24.5816C23.5893 24.9203 23.074 25.7935 22.8329 26.5244C22.3537 27.9756 22.5612 29.4505 22.9006 29.5391C23.2968 29.6428 23.9467 27.703 24.2579 26.9443C24.453 26.4692 25.2112 24.3605 25.0451 24.0787C24.9154 23.8584 24.3781 24.0363 23.8916 24.5816ZM29.375 29.473C29.375 29.473 29.2794 29.5634 29.3207 29.5887C29.3767 29.6221 29.4976 29.5787 29.6294 29.51C30.0023 29.2754 30.8389 28.6901 30.8407 27.8239C30.8407 27.7987 30.8397 27.7743 30.838 27.7481C30.6439 28.0028 30.4652 28.2295 30.3109 28.4218C30.0473 28.7496 29.375 29.473 29.375 29.473Z"/></g></svg>

<svg xmlns="http://www.w3.org/2000/svg" fill="none" aria-hidden="true" viewBox="0 0 48 48"><path fill="#8CC84B" d="M17.93 28.029c-.572.358-1.434.937-2.101 1.568-1.095 1.034-1.324 2.468-.746 2.803.534.31 1.781-.059 2.674-1.032.937-1.023 1.323-2.319.924-3.79l-.138.082.001.002-.06.035a68.37 68.37 0 0 0-.554.332Zm16.079-.464c-.324.704-.34.93-.242 1.001.47-.169 1.248-.576 1.254-1.667a1.726 1.726 0 0 0-.093-.522 3.795 3.795 0 0 0-.92 1.188Zm5.046-2.13c-1.256-.146-2.237.03-2.998.347.141.367.25.749.265 1.133.035.845-.546 1.47-1.152 1.916-.354.26-.73.433-1.046.538-.253.107-.588.217-.827.168-.525-.107-.805-.573-.447-1.603.193-.557.75-1.405 1.649-2.136-.205-.421-.434-.851-.55-1.246a10.14 10.14 0 0 1-.299-1.25s-.74 1.537-1.697 2.934l-.165.24c.188.437.336.898.356 1.363.035.845-.33 1.483-.937 1.928-.329.243-.679.41-.98.516a3.452 3.452 0 0 1-1.139.26c-.303.02-.596.001-.76-.122-.224-.17-.251-.38-.135-.666.099-.243.835-1.084 1.452-1.82.171-.203.334-.41.479-.603l-.004-.008s.112-.145.294-.397c-.226-.486-.512-.991-.647-1.45a10.17 10.17 0 0 1-.298-1.25s-.752 1.926-1.534 3.463a49.653 49.653 0 0 1-1.192 2.228l-.002.013s-.027.046-.074.118l-.035.06-.001-.006c-.203.3-.659.887-1.112.887-1.244 0-.787-2.526-.787-2.526s-.364.936-.774 1.739c-.333.655-.638 1.21-1.303 1.21-.191 0-.495-.006-.746-.246-.572-.542-1.008-1.92-.923-2.988.073-.908.213-1.536.404-2.06-.34.185-.735.406-1.137.641l-.617.364.02.036c.51.988.647 3.153-.467 4.815-1.114 1.663-3.187 2.674-5.207 2.112-.652-.181-1.636-1.53-.787-3.409.75-1.657 3.743-3.224 4.532-3.615l.216-.12c-1.573-1.376-5.5-3.233-6.051-6.085-.155-.803.22-2.723 2.578-4.93 1.983-1.856 4.742-3.277 7.29-4.183 4.28-1.522 8.803-.624 9.5 2.105.683 2.684-1.645 5.895-4.627 7.049-2.663 1.03-4.864.867-5.769.57-1.028-.338-1.63-1.016-1.778-1.4-.058-.149-.157-.4 0-.488.097-.053.136-.04.394.245.245.271 1.233.998 3.108.788 4.922-.552 7.887-4.379 6.95-6.438-.656-1.441-4.45-2.092-9.19.272-5.785 2.884-6.099 5.262-6.148 6.166-.136 2.484 3.064 3.79 4.795 5.639l.067.073 1.002-.552c.872-.48 1.696-.93 2.08-1.139.609-.886 1.845-1.863 2.738-1.863 1.427 0 .936 2.051.936 2.051s.03-.094.068-.095c.04 0 .198-.27.639-.11.453.167.35.485.352.518.006.063-.535 1.886-.76 3.056-.107.558-.045.964-.013.964.044 0 .134-.142.218-.294l-.002-.005s.064-.115.17-.323l.02-.043v.002c.126-.244.3-.603.503-1.047.396-.873 1.908-4.245 2.036-4.618.128-.373.195-.758.258-.924.062-.165.597-.29 1.221-.285.625.004.688.27.692.326.005.055-.296.795-.366 1.317-.069.523-.003.784.054 1.223.037.287.217.652.43 1.064.645-1.057 1.782-3.078 1.892-3.644.075-.387.195-.759.258-.924.063-.165.596-.29 1.22-.285.626.004.689.27.693.326.005.055-.298.795-.366 1.318-.069.521-.003.783.054 1.222.049.376.34.88.627 1.455a6.308 6.308 0 0 1 2.795-.653c.448-.002.97.043 1.238.127v-8.64a1.69 1.69 0 0 0-.84-1.476L24.814 6.228a1.696 1.696 0 0 0-1.7 0L9.06 14.371c-.527.304-.809.867-.809 1.476v16.3c0 .608.283 1.17.81 1.475l14.078 8.149a1.679 1.679 0 0 0 1.693 0l14.085-8.149c.527-.305.834-.867.834-1.475v-6.588a4.603 4.603 0 0 0-.695-.124Zm-15.163-.853c-.303.338-.818 1.212-1.06 1.942-.478 1.452-.27 2.927.069 3.015.396.104 1.046-1.836 1.357-2.595.195-.475.953-2.584.787-2.865-.13-.22-.667-.043-1.153.503Zm5.483 4.891s-.096.09-.054.116c.056.033.177-.01.308-.079.373-.235 1.21-.82 1.212-1.686l-.003-.076a33.31 33.31 0 0 1-.527.674 29.876 29.876 0 0 1-.936 1.051Z"/></svg>
